X: 1
T:Old Spand Hornpipe
M:9/8
R:Triple Hornpipe
O:England
A:North-West
K:GMix
GDF ECE DB,D| FCF FCF E2F| GDF ECE DB,D| GDG GDF| E2F::
GDF ECE DB,D| C3 F2A/B/ c2B/A/| dDF ECE DB,D| G,3 G2A/B/ c2B/A/::
Bd2 Ac2 GB2| A3 F2A/B/ c2B/A/| Bd2 Ac2 GB2| B/A/B/c/d G>AB c>BA::
B>cd/B/ A>Bc/A/ G>AB/G/| A>Bc/A/ F>GA/F/ A>Bc/A/|\
B>cd/B/ A>Bc/A G>AB/G/| B>cd/B/ G>AB/G/ A>Bc/A::
L:1/16
BABcd2 edefg2 fefga2| f6 F4AB c4BA| BABcd2 edefg2 fefga2| g6 G4AB c4BA::
L:1/8
Bd2 eg2 fa2| f3 F2AB c2BA| B/A/B/c/d e/d/e/f/g f/e/f/g/a| g3 G2A/B/ c2B/A/::
f>ed g>fe f>ed| c>BA/G/ F>GA/B/ c>de| f>ed g>fe a>gf| g3 G2A/B/ c2d/e/::
fdB cAF GDB,| C3 F2A/B/ c2d/e/| fdB cAF GDB,| D3 G2A/B/ c2B/c/::
D2G C2F B,2D| A,2F FCF E2G| D2G C2F B,2D| G,2G GDF E2F::
G/D/G/D/G/D/ ECE DB,D| FCF FCF E2F| \
G/D/G/D/G/D/ ECE DB,D| G/D/G/D/G/D/ G/D/G/D/G/D/ E2F::
G/D/G/D/G/D/ ECE DB,D| C3 F2A/B/ c2B/A/| \
d2c/B/ c2B/A/ G/AB/G| D3 G2A/B/ c2B/A/::
dBG cAF G/AB/G| cA(F F)AB cBA| dBG cAF G/AB/G| B/A/B/c/d dGd c2B/A/::
B/A/B/c/d A>Bc B/A/B/c/d| A>Bc cFd c>BA| \
d2c/B/ c2B/A/ GDB,| G,3 G2A/B/ c2B/A/ :|
